src/icons/svg/zone.svg

<?xml version="1.0" encoding="UTF-8"?>
<svg width="40px" height="50px" viewBox="0 0 40 50" version="1.1" xmlns="http://www.w3.org/2000/svg"
>
    <polygon id="路径" points="40 49.6999083 0 49.6999083 0 46.1499003 40 46.1499003"></polygon>
    <path d="M8.27999898,27.3882242 C6.15964336,25.3635242 4.75128855,22.8333122 4.22770215,20.1084637 C3.70409535,17.3835337 4.08804375,14.5822261 5.33240296,12.0481789 C6.57678257,9.51411127 8.62747218,7.35746405 11.2329398,5.84282524 C13.8384074,4.32816603 16.885331,3.52136642 20.0000439,3.52136642 C23.1147159,3.52136642 26.1616599,4.32816603 28.7671479,5.84282524 C31.3724319,7.35746405 33.423244,9.51411127 34.667644,12.0481789 C35.912044,14.5822261 36.295972,17.3835337 35.772304,20.1084637 C35.248636,22.8333122 33.840424,25.3635242 31.7200479,27.3882242 L34.579924,24.8500562 L37.019968,27.0155162 C38.96674,24.2337722 39.998776,21.0246481 40,17.7499993 C40,7.94667726 31.0460319,0 20.0000439,0 C8.95399458,0 0,7.94667726 0,17.7499993 C0.00119544001,21.0246481 1.03333345,24.2337722 2.97999734,27.0155162 L5.42000056,24.8500562 L8.27999898,27.3882242 Z M20.0000439,37.7897763 L17.200001,35.3046482 C13.0563122,34.7815922 9.20199738,33.1177682 6.18000256,30.5477762 L20.0000439,42.6000963 L21.4200879,41.3397843 L18.5799999,39.0500883 L20.0000439,37.7897763 Z"
          id="形状"></path>
    <path d="M9.14000178,28.1515922 L8.27999898,27.3882242 L5.42000056,24.8500562 L2.97999734,27.0155162 C3.72037455,28.0969202 4.59227055,29.1028442 5.57999776,30.0153362 L6.18000256,30.5477762 C9.20199738,33.1177682 13.0563122,34.7815922 17.200001,35.3046482 L9.14000178,28.1515922 Z M20.0000439,37.7897763 L21.4200879,39.0500883 L18.5799999,41.3575323 L20.0000439,42.6000963 L33.820024,30.5300282 C30.7979679,33.1000202 26.9437959,34.7638442 22.7999439,35.2869002 L20.0000439,37.7897763 Z"
          id="形状"></path>
    <path d="M34.579924,24.8500562 L31.7200479,27.3882242 L30.8599839,28.1515922 L22.8599199,35.2514042 C27.0037719,34.7283482 30.8579439,33.0645242 33.88,30.4945322 L34.479964,29.9620922 C35.467732,29.0496002 36.339628,28.0436762 37.079944,26.9622722 L34.579924,24.8500562 Z M18.5939943,39.0445803 L20.0079999,37.7897763 L21.4219239,39.0445803 L20.0079999,40.2995883 L18.5939943,39.0445803 Z M20.0000439,14.1999913 C21.0608439,14.1999913 22.0781919,14.5740253 22.8285039,15.2397793 C23.5786119,15.9055333 24.0000759,16.8084781 24.0000759,17.7499993 C24.0000759,18.6915205 23.5786119,19.5944653 22.8285039,20.2602193 C22.0781919,20.9259121 21.0608439,21.3000481 20.0000439,21.3000481 C18.9391419,21.3000481 17.9217122,20.9259121 17.1715838,20.2602193 C16.421435,19.5944653 15.9999914,18.6915205 15.9999914,17.7499993 C15.9999914,16.8084781 16.421435,15.9055333 17.1715838,15.2397793 C17.9217122,14.5740253 18.9391419,14.1999913 20.0000439,14.1999913 Z M20.0000439,10.6500037 C17.8782602,10.6500037 15.8434418,11.3980309 14.3431442,12.7295389 C12.8428466,14.0610469 12.0000002,15.8669569 12.0000002,17.7499993 C12.0000002,19.6330417 12.8428466,21.4389722 14.3431442,22.7704802 C15.8434418,24.1019882 17.8782602,24.8500562 20.0000439,24.8500562 C22.1216439,24.8500562 24.1565439,24.1019882 25.6567599,22.7704802 C27.1571799,21.4389722 27.9999039,19.6330417 27.9999039,17.7499993 C27.9999039,15.8669569 27.1571799,14.0610469 25.6567599,12.7295389 C24.1565439,11.3980309 22.1216439,10.6500037 20.0000439,10.6500037 Z"
          id="形状"></path>
</svg>

<svg width="40" height="50" xmlns="http://www.w3.org/2000/svg"><path d="M40 49.7H0v-3.55h40zM8.28 27.388c-2.12-2.024-3.529-4.555-4.052-7.28-.524-2.724-.14-5.526 1.104-8.06 1.245-2.534 3.295-4.69 5.9-6.205C13.839 4.328 16.886 3.52 20 3.52c3.115 0 6.162.807 8.767 2.322 2.605 1.514 4.656 3.671 5.9 6.205 1.245 2.534 1.629 5.336 1.105 8.06-.523 2.725-1.932 5.256-4.052 7.28l2.86-2.538 2.44 2.166c1.947-2.782 2.979-5.991 2.98-9.266C40 7.947 31.046 0 20 0S0 7.947 0 17.75c.001 3.275 1.033 6.484 2.98 9.266l2.44-2.166 2.86 2.538zM20 37.79l-2.8-2.485c-4.144-.523-7.998-2.187-11.02-4.757L20 42.6l1.42-1.26-2.84-2.29L20 37.79z"/><path d="M9.14 28.152l-.86-.764-2.86-2.538-2.44 2.166a17.71 17.71 0 0 0 2.6 3l.6.532c3.022 2.57 6.876 4.234 11.02 4.757l-8.06-7.153zM20 37.79l1.42 1.26-2.84 2.308L20 42.6l13.82-12.07c-3.022 2.57-6.876 4.234-11.02 4.757L20 37.79z"/><path d="M34.58 24.85l-2.86 2.538-.86.764-8 7.1c4.144-.524 7.998-2.187 11.02-4.757l.6-.533a17.705 17.705 0 0 0 2.6-3l-2.5-2.112zM18.594 39.045l1.414-1.255 1.414 1.255-1.414 1.255-1.414-1.255zM20 14.2c1.06 0 2.078.374 2.829 1.04.75.666 1.171 1.568 1.171 2.51 0 .942-.421 1.844-1.171 2.51-.75.666-1.768 1.04-2.829 1.04-1.06 0-2.078-.374-2.828-1.04S16 18.692 16 17.75c0-.942.421-1.844 1.172-2.51.75-.666 1.767-1.04 2.828-1.04zm0-3.55c-2.122 0-4.157.748-5.657 2.08C12.843 14.06 12 15.867 12 17.75c0 1.883.843 3.689 2.343 5.02 1.5 1.332 3.535 2.08 5.657 2.08s4.157-.748 5.657-2.08C27.157 21.44 28 19.633 28 17.75c0-1.883-.843-3.689-2.343-5.02-1.5-1.332-3.535-2.08-5.657-2.08z"/></svg>
